src/components/icon/calendar.svg

<svg xmlns="http://www.w3.org/2000/svg" width="16" height="16" viewBox="0 0 24 24">
<path d="M17.5,0 C18.3284271,-1.52179594e-16 19,0.671572875 19,1.5 L19,6.5 C19,7.32842712 18.3284271,8 17.5,8 C16.6715729,8 16,7.32842712 16,6.5 L16,1.5 C16,0.671572875 16.6715729,1.52179594e-16 17.5,0 Z M6.5,0 C7.32842712,-1.52179594e-16 8,0.671572875 8,1.5 L8,6.5 C8,7.32842712 7.32842712,8 6.5,8 C5.67157288,8 5,7.32842712 5,6.5 L5,1.5 C5,0.671572875 5.67157288,1.52179594e-16 6.5,0 Z M4,3 L20,3 C22.209139,3 24,4.790861 24,7 L24,20 C24,22.209139 22.209139,24 20,24 L4,24 C1.790861,24 2.96059473e-16,22.209139 0,20 L0,7 C-2.96059473e-16,4.790861 1.790861,3 4,3 Z M4,5 C2.8954305,5 2,5.8954305 2,7 L2,20 C2,21.1045695 2.8954305,22 4,22 L20,22 C21.1045695,22 22,21.1045695 22,20 L22,7 C22,5.8954305 21.1045695,5 20,5 L4,5 Z M2,9 L2,11 L22,11 L22,9 L2,9 Z"/>
</svg>

<svg xmlns="http://www.w3.org/2000/svg" width="16" height="16" viewBox="0 0 24 24"><path d="M17.5 0A1.5 1.5 0 0 1 19 1.5v5a1.5 1.5 0 0 1-3 0v-5A1.5 1.5 0 0 1 17.5 0zm-11 0A1.5 1.5 0 0 1 8 1.5v5a1.5 1.5 0 0 1-3 0v-5A1.5 1.5 0 0 1 6.5 0zM4 3h16a4 4 0 0 1 4 4v13a4 4 0 0 1-4 4H4a4 4 0 0 1-4-4V7a4 4 0 0 1 4-4zm0 2a2 2 0 0 0-2 2v13a2 2 0 0 0 2 2h16a2 2 0 0 0 2-2V7a2 2 0 0 0-2-2H4zM2 9v2h20V9H2z"/></svg>
